release/img/spravka_icon.svg

<svg width="58" height="58" viewBox="0 0 58 58" fill="none" xmlns="http://www.w3.org/2000/svg">
<path d="M37.6097 13.6567C36.2248 12.2043 34.8062 10.7518 33.3537 9.26554C33.5564 9.13042 33.7253 9.02909 33.8942 8.92776C39.3663 5.75258 46.5948 6.59705 51.0874 11.0558C53.3843 13.319 54.7354 16.1901 55.3434 19.3653C56.4243 25.209 55.0057 30.4109 50.9522 34.8021C46.561 39.5311 42.0009 44.1249 36.7991 48.0095C35.2452 49.1579 33.5225 50.1037 31.8336 51.0495C30.246 51.894 28.6246 51.8264 26.9695 51.0495C24.7739 50.0699 22.8485 48.685 20.9569 47.1988C15.9915 43.2467 11.4652 38.7879 7.20907 34.0927C4.84458 31.4918 3.52725 28.3166 3.12191 24.7699C2.58145 19.8382 3.83124 15.3794 7.00641 11.5625C8.89801 9.29932 11.4314 7.98196 14.3026 7.37395C19.572 6.25926 24.1659 7.64417 28.0166 11.4274C30.4825 13.8594 32.8808 16.3252 35.3466 18.7573C36.7991 20.2098 39.1635 19.6018 39.7378 17.6764C40.008 16.7981 39.8391 15.9537 39.2311 15.2443C38.9271 14.8728 38.5556 14.5688 38.2178 14.2647C38.0151 14.0621 37.8124 13.8256 37.576 13.623L37.6097 13.6567ZM26.6993 34.0589C26.6993 34.9034 26.6993 35.7479 26.6993 36.5923C26.6993 38.0448 27.8139 39.1595 29.2664 39.1933C30.7189 39.1933 31.8674 38.0786 31.9011 36.5923C31.9011 35.7479 31.9011 34.9034 31.9011 34.0589L32.0025 33.9576C32.8469 33.9576 33.6914 33.9576 34.5359 33.9576C36.3599 33.89 37.5759 32.2687 37.0692 30.546C36.7315 29.4313 35.7519 28.7219 34.4345 28.7219C33.5901 28.7219 32.7794 28.7219 31.9011 28.7219C31.9011 28.4855 31.9011 28.3504 31.9011 28.2153C31.9011 27.337 31.9687 26.425 31.8336 25.5805C31.6309 24.2294 30.3474 23.3512 28.9287 23.4863C27.6789 23.6214 26.6655 24.7361 26.6655 26.0534C26.6655 26.9317 26.6655 27.8099 26.6655 28.7219C25.8886 28.7219 25.1793 28.7219 24.5037 28.7219C24.0646 28.7219 23.5917 28.7219 23.1863 28.8908C22.0041 29.2624 21.261 30.4446 21.3961 31.5931C21.565 32.9443 22.6121 33.89 23.9633 33.9576C24.8415 33.9576 25.6859 33.9576 26.5642 33.9576C26.5642 33.9914 26.6317 34.0252 26.6655 34.0589H26.6993Z" fill="white"/>
<path d="M26.5996 33.9568C26.5996 33.9568 26.6672 34.0243 26.7009 34.0581C26.7009 34.0243 26.6334 33.9906 26.5996 33.9568Z" fill="#F9AF76"/>
</svg>

<svg xmlns="http://www.w3.org/2000/svg" width="58" height="58" fill="none" viewBox="0 0 58 58">
  <path fill="#fff" d="M37.61 13.657a499.054 499.054 0 0 0-4.256-4.391c.202-.136.371-.237.54-.338 5.472-3.175 12.7-2.331 17.193 2.128 2.297 2.263 3.648 5.134 4.256 8.31 1.081 5.843-.337 11.045-4.39 15.436C46.56 39.532 42 44.125 36.798 48.01c-1.554 1.148-3.276 2.094-4.965 3.04-1.588.844-3.21.776-4.864 0-2.196-.98-4.121-2.365-6.013-3.851-4.966-3.952-9.492-8.411-13.748-13.106-2.364-2.601-3.682-5.776-4.087-9.323-.54-4.932.71-9.39 3.884-13.207 1.892-2.264 4.425-3.581 7.297-4.19 5.269-1.114 9.863.271 13.714 4.054 2.466 2.432 4.864 4.898 7.33 7.33 1.452 1.453 3.816.845 4.39-1.08.271-.879.102-1.723-.506-2.433-.304-.371-.675-.675-1.013-.98-.203-.202-.406-.438-.642-.641l.034.034ZM26.7 34.059v2.533c0 1.453 1.114 2.568 2.566 2.601 1.453 0 2.601-1.114 2.635-2.6v-2.534l.101-.101h2.534c1.824-.068 3.04-1.69 2.533-3.412-.338-1.115-1.317-1.824-2.635-1.824h-2.533v-.507c0-.878.068-1.79-.067-2.634-.203-1.352-1.487-2.23-2.905-2.095-1.25.135-2.263 1.25-2.263 2.567v2.669h-2.162c-.44 0-.912 0-1.318.169-1.182.371-1.925 1.554-1.79 2.702.169 1.351 1.216 2.297 2.567 2.365h2.601c0 .033.068.067.102.1h.033Z"/>
  <path fill="#F9AF76" d="m26.6 33.957.1.101c0-.034-.067-.067-.1-.101Z"/>
</svg>
